X:15
T:Cliffs of Moher
M:6/8
L:1/8
R:jig
K:G
|:"Am"~a3 "Em"bag|"Am"faf "Em"ged|"Am"c2A "G"BAG|"Em"EFG "Am"ABc|
~a3 "Em"bag|"Am"faf "Em"ged|"Am"cAA "G"BAG|"Am"EFG "D"A3:|
"Em"efe "D"dBA|"Em"efe "D"dBA|"G"GAB dBA|GAB dBd|
"Em"efe "D"dBA|"Em"efe "D"dBA|"G"GAB dBA|"C"EFG "D"A3|
"Em"efe "D"dBA|"Em"efe "D"dBA|"G"GAB dBA|GAB dBd|
"C"efe "G"ded|"Am"cdc "Em"BcB|EGA BAG|EDB, "A"A,3||
